X: 564
T: Absent-minded Man, The
R: jig
M: 6/8
K: Amajor
d|cAc efg|aed c2A|dfd cec|dBB B2d|
cAc efg|aed c2A|Bba gfg|aAA A2:|
|:c|ecc Acc|ecc Acc|dBB GBB|dBB GBB|
ecc fdd|gee aff|ecc dBg|aAA A2:|

